X:998
T:Reel 998
M:4/4
K:Amin
L:1/8
A,B,|CA,B,G, A,G,E,^F,|G,A,B,C DB,G,B,|CA,B,G, A,G,E,D,|E,A,A,^G, A,2:||2C2CB, CDED|CA,B,G, A,2|A,B,|CDEF G2E^F|GA^FA G2ED|CB,CD E2E^D|EAAG A2E2|CDCD E2E^F|GE^FD ECA,B,|C2B,G, A,B,A,B,|A,AB,G, A,2|
